icons/1_Primary/ING.svg

<svg xmlns="http://www.w3.org/2000/svg" viewBox="0 0 1024 1024">
   <circle cx="512" cy="512" r="512" style="fill:#ff6200"/>
   <path d="M687.9 279.7c38.1 15.4 64.5 54.7 64.1 95.8v272.6c.9 55.9-47.9 104.7-103.8 103.8H375.6C319.8 752.8 271 704 272 648.1V375.5c0-13.6 2.7-27 7.8-39.7 15.5-38 54.7-64.5 95.8-64h272.6c13.6.1 27.2 2.8 39.7 7.9zm51.3 355.2c-22.5-13.8-38.2-19.2-56.9-27.7-3.7 3.7-5.4 9.3-11 12.9-1.8 1.9-14.9-9.3-22.2-12.9-5.4-3.7-16.6-5.4-24-7.4-1.8 0-1.8-3.7-1.8-5.6-1.9-5.6-3.8-11-1.9-13 9.3-3.7 12.9-11 12.9-16.6 0-5.6 5.4 1.7 11 0 3.7-3.7 5.6-7.4 3.7-11.2 0-3.7-1.8-7.4-5.4-7.4-18.2-7.4-39.2-7.4-57.4 0-5.6 1.9-5.6 9.3-3.8 14.9 1.9 7.4 9.4 3.7 14.9 0 1.7 0-1.9 5.4 1.7 11 3.8 7.5 11.2 9.3 11.2 11.2 0 5.4 0 5.4-1.9 9.1 0 3.8 0 7.5-3.7 9.3-11 1.9-20.3 5.6-31.5 9.3-5.4 1.9-11 7.5-16.6 7.5-3.7 0-7.4-7.5-9.1-9.3-3.8 0-3.8-1.9-11.2 0-16.2 6.7-32.3 14.4-47.6 22.7-5.1 2.9-10.2 5.8-15.3 8.8-3.7-3.9-1.7-9.3-3.7-13.1 20.7-12.8 42.4-24 64.9-33.3 1.7-1.9 0-7.4-1.9-11.2 0 0-13-1.8-37.1 5.6-14.7 3.7-31.5 12.9-33.4 12.9-.7-2-1.1-4.2-1.3-6.4-.2-1.1-.3-2.1-.3-3.2-.1-1.1-.2-2.2-.2-3.4l8.6-4.2 8.6-3.8c5.3-2 12.5-5.1 17.9-6.7 12.9-3.7 25.9-3.7 38.9-5.6-1.9 0-1.9-3.7-1.9-5.6-5.4-11-14.7-20.3-24-29.6-3.7-7.5-7.5-16.6-7.5-20.3 3.8-3.8 7.5 1.8 13.1 1.8-1.9-4.8-3-10.1-3.4-15.2-.2-1.7-.3-3.4-.3-5.1-1.9-7.5-1.9-7.5-1.9-16.6 0-11.2 3.7-16.8 1.9-18.5-1.9-1.9-9.4-5.6-11.2-5.6-3.7-1.9-5.6-1.9-7.4-5.4-14.6-22.1-13.8-28.4-3.8-52 1.9-7.4 11.2-11 16.8-14.7 5.6-3.8 11-1.9 16.6-1.9 13 0 24 7.4 33.4 13 3.2 2.6 6.1 5.5 8.2 9.1 2.4 3.4 3.7 7.3 4.8 11.3h16.6c9.3 1.8 18.5 3.7 29.6 9.1 12.9-11 35.2-12.9 46.4-12.9 0-20.3 14.7-31.5 25.7-31.5 9.4-1.8 14.9-3.7 27.8 1.9 9.3 5.6 22.2 24 22.2 25.9 3.8 7.5 1.9 16.6 1.9 27.8-.3 1.2-.6 2.4-.8 3.7-.9 3.6-1 7.5-1.1 11.2-1.8 7.4-11 12.9-16.6 14.7 0 12.9-3.7 20.3-5.6 31.5 0 5.6-1.8 11-3.7 16.6 5.6-1.9 7.5-5.6 13-5.6-3.7 24.2-9.3 20.3-14.7 31.5-1.1 4-2.6 8-4.5 11.7-3.5 7.4-8.7 13.9-16 17.9-3.7 1.9 0 3.8 0 5.6 14.4 0 30.9 3.4 51.3 11.7V375.5c0-1.7-.1-3.3-.2-4.9-.2-3.3-.7-6.8-1.1-10.1-.3-1.7-.7-3.4-1.1-5-10.6 10-15.6 8.3-28.5 3.7-3.7-3.7-20.5-9.3-29.7-9.3-11 0-18.4 14.9-31.3 22.2-5.6 1.8-16.8 3.7-27.8 7.4-7.5 3.7-11.2 5.6-11.2 1.9-1.8-7.5-1.8-14.9-1.8-22.2-5.6-1.9-13-1.9-18.6-5.6-2.1 8.5-6.1 16.7-11 24-7.5-3.7-14.9-5.4-22.2-11-9.4-5.6-31.5-18.5-33.4-22.2-7.4 7.4-29.6 20.3-42.5 27.8l-3 4.8c-1.1 1.5-2.1 3-3.2 4.6-1.1 1.5-2.2 3-3.4 4.5-1.1 1.5-2.2 3-3.4 4.5l-18.5-7.3c3.7-7.5 7.3-11 11.2-18.5 7.4-11 18.4-20.3 25.7-27.8 20.5-7.4 20.5-11 44.5-14.7 9.3 11 35.2 27.8 35.2 27.8 0 3.7 1.9-1.9 9.3-24.1 5.6 3.7 9.3 3.7 14.9 7.4.6.1 1.3.3 1.9.5.5.1 1.1.2 1.7.3.6.2 1.3.4 1.9.5.5.2 1.1.4 1.8.6 1.9 0 13-5.6 14.9-7.4 3.7-1.9 20.3-5.6 20.3-5.6 1.9 1.9-5.6 14.9-5.6 16.6v14.9c1.1.2 2.7-.1 3.8-.3l1.9-.7c.5-.2 1.1-.5 1.8-.8 9.1-3.8 11-20.5 14.7-33.4 5.6 1.9 9.3 1.9 14.9 1.9 0 7.4-3.7 18.4 1.8 18.4 5.6 0 13.1-7.4 24.2-16.6 16 6.4 31.8 15.5 46.7 25.1-11.6-36.6-47.9-63-86.3-62.4H375.9c-23.7-.1-47.5 9.6-64.1 26.6-17 16.7-26.8 40.3-26.7 64.1v272.6c-.9 48.9 41.9 91.8 90.8 90.8h66.8c-.8-2.2-1.5-4.5-2.4-6.7-1.7-3.9-4-9.4-5.9-13.1l-3.5-6.4s27.8-11 35.2-11c1.8 3.7 3.7 9.1 7.4 12.8-3.7 3.8-14.7 14.9-18.5 20.5-.5.8-1.6 1.5-2.4 2.1-.4.4-.9.7-1.3 1l-1.3 1h126.3c-5-5.8-10.4-12.9-10.4-17 0-5.6-7.4-14.9 1.9-14.9 0-3.7 9.3 1.9 13 1.9 1 0 1.9.1 2.9.3.9.2 1.7.6 2.6 1.1.9.4 1.6 1 2.2 1.8.6.6 1.2 1.4 1.6 2.2 1.9 5.6 0 11.2 1.9 16.8.3 1.7.7 4 1 5.8l.6 1.9h15c0-5.6 0-9.6-1.8-13.3 0-3.7-1.9-9.3 0-14.9 0-5.4 14.7-7.4 22.1-9.3 1.9 9.3 3.8 18.6 1.9 24.2-1.6 5.1-4.8 8.6-8.1 13.3 4.1-.1 27.9.1 31.5-.2-2.1-.6-3.8-1.1-6.6-1.9-1.8-1.9-1.8-5.6-1.8-11.2 0-3.7-1.9-11.2-1.9-18.5 0-3.7 3.7-5.4 9.3-9.3 1.8 0 3.7-1.8 11-3.7V724c.8 3.4 2.1 8.6 3.2 13.3 3.8-.9 7.9-1.9 11.5-3.2l5.7-2.2c1.8-.8 3.6-1.6 5.4-2.6-4.2-5.8-9.1-16-9.1-20-1.9-5.6-1.9-16.6 0-22.2 0 0 11 3.7 14.7 5.6 9.3 0 1.9 12.9 5.6 16.6l.3 2.9c.2 1 .4 1.9.6 2.7.2 1 .5 1.9.8 2.9.2.9.5 1.8 1 2.7 1.7-1.4 3.4-2.8 4.9-4.3 1.7-1.4 3.3-2.9 4.8-4.5 3.2-3.2 5.9-6.6 8.5-10.2-1.9-1.2-3.7-3.2-5.1-5-1.2-2-2-4.4-2.9-6.6-.4-1.5-.9-3-1.4-4.6-.9-3-1.8-6.3-2.4-9.4 1.9 0 5.6 0 7.5 1.9 5.4 0 5.4 0 9.1 1.8 0 1.6 1.4 4.8 3.4 8.5 1.5-3.1 2.8-6.2 3.8-9.4 2.3-6.6 3.8-13.1 4.6-20 .5-6.7.3-17.4.5-23.8zm-.1-13v-25.7c-20.3-8.3-38.9-10.1-49.3-12.9V598c7.4 1.9 11 5.6 18.5 7.5 2.8 1.2 18.9 9.9 30.8 16.4zm-80.8-73.8c7.4 3.7 16.6 7.4 22.2 12.8 1.8 0 7.4-9.3 7.4-12.9 7.4 0-9.3-7.4-16.6-13-.4 0-.8-.1-1.1-.2-.3-.1-.6-.3-1-.5-.3-.1-.6-.3-.8-.5-.3-.2-.6-.5-.8-.8-3.8-3.7-5.6-11-13.1-12.9h-.6c-.2-.1-.4-.3-.6-.5l-.3-.6c-.4-5.6-1.9-28.2-2.1-28.5 3.7 7.5 11.2 7.5 14.9 7.5 7.4 0 13-1.9 16.6-7.5 0-1.8 1.9-5.4 3.7-5.4 3.8-1.9 7.5-3.8 9.3-7.5 1.9 0 3.8-3.7 3.8-3.7-16.8-1.9-52-1.9-52-1.9-5.6 1.9-11 7.5-11 9.4 0 0 3.7 20.3 3.7 22.1 0 13.1 1.8 13.1 1.8 26.1 5.6 3.7 7.5 3.7 11.2 7.4 1.8 3.7 3.7 7.4 5.6 11l-.2.1zm18.5 33.2c-5.6-1.8-11.2-5.6-22.2-3.7-1.9 1.9-1.9 1.9-1.9 7.4 9.3 0 14.9 5.6 22.2 7.5 0 0 1.9-9.3 1.9-11.2zm-39-137c3.7 0 3.7 7.5 3.7 11.2 9.4 0 18.7 1.8 22.2-1.8 20.5-9.4-11-16.8-14.7-16.8-9.3-1.9-27.8-7.4-20.5 0 .1 3.7 5.6 3.7 9.3 7.4zm39-24c12.9 3.7 22.2 11.2 31.5 22.2 1.4 0 2.8-.2 4.2-.6 1.3-.5 2.5-1.2 3.7-1.9 1.2-.9 2.2-1.9 3-3 .9-1.1 1.5-2.3 2.1-3.7 1.8-9.3 3.7-24.1-1.9-31.5-3.7-3.7-5.6-5.6-14.9-7.4-5.2-1.7-11.2-.5-16 2.1-1.6 1-3 2.1-4.3 3.5-3.7 5.4-9.3 12.9-7.4 20.3zm-94.5 112.9v-5.4c1.9-16.8 1.9-20.5 3.8-31.5 0-1.9 1.7-13 1.7-14.9 0-3.7-3.7-7.5-9.3-9.3-15.2.3-35-1.1-49.9 1.8 3.5 7.5 12.8 15 16.5 18.7 3.8 3.5 7.5 7.4 14.9 7.4 7.5-1.9 7.5 0 11.2-1.9 0 3.7 1.8 9.3 0 12.9 0 1.9 1.8 16.6-5.6 18.6-5.6 1.9-13 5.4-16.6 11-3.8 5.6-5.6 14.9 0 18.5 3.7 1.9 7.4-3.7 13-5.6 5.6-1.8 5.6-5.4 7.4-11 3.7-3.7 11-5.6 12.9-9.3zM562 579.5c-1.8 0-4.7.3-6.6.5-1.6.3-4.8 1-6.4 1.3l.6 2.9c.3 1 .6 1.9 1 2.7l1 2.9c.3.9.7 1.8 1.1 2.7 5.4-1.9 7.4-3.7 11-5.6 0 0 7.5-3.7 9.3-5.6-3.6-1.7-7.3-1.7-11-1.8zm-27.8-148c3.7-3.8 14.7-11.2 14.7-11.2 1.9 0 1.9-1.9 1.9-3.7-3.7-12.9-7.4-12.9-14.9-16.6-.9-.8-1.8-1.3-2.9-1.8-3.1-1.6-6.6-2.1-10.1-2.1-7.4 1.9-20.3 5.6-24 16.8 0 1.8-1.9 9.3 3.7 16.6 3.7 7.4 11.2 13 14.9 16.6 5.7.1 7.4-9.2 16.7-14.6zm53.7 24c5.6-7.4 11-11.2 11-18.5 0-3.7-7.4-1.9-11 0-3.7 0-9.3 3.7-14.9 7.4-5.4 5.6-9.3 7.5-9.3 12.9h9.3c9.3-.1 11.3 3.8 14.9-1.8zM434.1 570.3c-5.4 7.4-16.6 18.5-20.3 24l-1.9-22.2c-1.8-5.6-1.8-5.6-1.8-16.6 9.3-5.6 13-9.3 22.2-14.9 3.7-3.7 16.6-7.4 35.2-12.9 0 7.5-1.9 12.9-3.7 20.3-11.2 5.4-21.4 13-29.6 22.4l-.1-.1zm-9.2 98.2c0-3.8-1.9-7.5-3.7-11.2-1.9-5.6-1.9-11-3.8-16.6-.3-11.4-2.2-29.2-1.8-38.9 7.4-3.8 16.6-9.4 24-12.9-1.8 9.1-3.7 12.9-3.7 27.7 0 3.7 3.7 14.9 5.6 27.8-3.7 7.4-5.6 13-11 18.5-.6.9-1.7 2.3-2.4 3.2-1 .9-2 1.7-3.2 2.4zm-1.7-209.4c7.4-3.7 11-7.4 18.4-12.9-2.1-14.1-7.4-33 0-44.5 3.7-7.3 12.9-7.3 20.3-5.6-1.7 13-3.5 16.8-3.5 31.5 0 1.9 3.5 11.2 5.4 14.9 1.9 3.7 3.7 7.4 3.7 11.2 0 1.8-1.8 3.5-3.7 5.4-5.4 3.7-7.4 1.9-9.3 5.6-9.3 7.4-12.9 11-20.3 16.6-3.7 3.7-3.7 3.7-7.4 9.3.1 0-1.8-20.3-3.6-31.5zm0 57.4c0-1.9 0-14.9 1.8-20.5 0-3.5 16.6-9.1 25.9-11 3.7 0 18.5-3.7 20.3 0 1.9 3.8-1.7 3.7-1.7 14.9-1.9 3.7-3.7 1.8-7.5 5.6-1.7 1.8-22.1 16.6-24 18.4-3.7 1.9-5.6 3.7-11 9.3-2-5.6-2-11.1-3.8-16.7zm122.2 168.6c1.8 3.7 3.7 12.9 3.7 12.9 0 12.9-5.6 16.6-7.4 24-3.8-5.6-5.6-12.9-7.5-18.5-1.8-5.6-5.6-9.3-9.3-14.9 1.9-1.8 3.7-16.5 3.7-16.5 1.9-1.9 5.6 1.8 7.4 1.8 1.1.6 2.1 1.4 3 2.2l2.5 2.6c1.5 1.9 2.9 4.1 3.7 6.4h.2zm66.7-68.6c18.5 0 37.1 1.9 51.8 11.2 0 7.4 0 16.6-3.7 24 0 1.9-3.7 9.4-7.4 13-5.6-7.4-16.6-14.7-16.6-14.7 1.8 7.4 0 9.1-1.9 18.6 0 1.8-12.9 1.8-12.9 1.8-11-5.6-12.9-12.9-12.9-12.9 0 1.7-1.9 14.9-9.3 14.9-7.5 0-12.9 0-12.9-5.6-2.4-7.4-1.6-14.6-1.8-22.2-5.6 1.9-9.3 7.4-13.1 11.2-1.8 0-3.7-3.8-5.4-3.8-.8-1.6-1.6-3.3-2.4-5-2-5-3.9-10.1-5.1-15.3 18.4-13.3 37-15.2 53.6-15.2zm-107.3 66.7c1.8 9.3 7.4 25.9 7.4 25.9-5.6-3.7-11.2-5.6-16.6-9.3-3.7-1.9-7.5-3.7-7.5-5.6-1.8-7.2-3.3-14.7-3.7-22.2 0-7.3 3.7-14.7 7.5-14.7 3.7 1.8 9.1 3.7 11 7.4 3.7 5.5 0 13 1.9 18.5zm-55.7-25.9c5.6 5.6 7.5 7.4 11.2 16.6-1.9 1.9-12.9 11.2-22.2 22.2 0 3.7-5.6 7.4-5.6 7.4 0-7.4-1.8-16.6-1.8-20.3-1.9-3.7-3.7-5.6-3.7-9.3 1.8-1.9 5.4-3.7 9.1-5.6 2-3.7 11.3-9.3 13-11z" style="fill:#fff"/>
</svg>

<svg width="1024" height="1024" viewBox="0 0 1024 1024" fill="none" xmlns="http://www.w3.org/2000/svg">
<g clip-path="url(#clip0_2_2517)">
<path d="M512 1024C794.77 1024 1024 794.77 1024 512C1024 229.23 794.77 0 512 0C229.23 0 0 229.23 0 512C0 794.77 229.23 1024 512 1024Z" fill="#F8C18C"/>
<path d="M687.9 279.7C726 295.1 752.4 334.4 752 375.5V648.1C752.9 704 704.1 752.8 648.2 751.9H375.6C319.8 752.8 271 704 272 648.1V375.5C272 361.9 274.7 348.5 279.8 335.8C295.3 297.8 334.5 271.3 375.6 271.8H648.2C661.8 271.9 675.4 274.6 687.9 279.7ZM739.2 634.9C716.7 621.1 701 615.7 682.3 607.2C678.6 610.9 676.9 616.5 671.3 620.1C669.5 622 656.4 610.8 649.1 607.2C643.7 603.5 632.5 601.8 625.1 599.8C623.3 599.8 623.3 596.1 623.3 594.2C621.4 588.6 619.5 583.2 621.4 581.2C630.7 577.5 634.3 570.2 634.3 564.6C634.3 559 639.7 566.3 645.3 564.6C649 560.9 650.9 557.2 649 553.4C649 549.7 647.2 546 643.6 546C625.4 538.6 604.4 538.6 586.2 546C580.6 547.9 580.6 555.3 582.4 560.9C584.3 568.3 591.8 564.6 597.3 560.9C599 560.9 595.4 566.3 599 571.9C602.8 579.4 610.2 581.2 610.2 583.1C610.2 588.5 610.2 588.5 608.3 592.2C608.3 596 608.3 599.7 604.6 601.5C593.6 603.4 584.3 607.1 573.1 610.8C567.7 612.7 562.1 618.3 556.5 618.3C552.8 618.3 549.1 610.8 547.4 609C543.6 609 543.6 607.1 536.2 609C520 615.7 503.9 623.4 488.6 631.7C483.5 634.6 478.4 637.5 473.3 640.5C469.6 636.6 471.6 631.2 469.6 627.4C490.3 614.6 512 603.4 534.5 594.1C536.2 592.2 534.5 586.7 532.6 582.9C532.6 582.9 519.6 581.1 495.5 588.5C480.8 592.2 464 601.4 462.1 601.4C461.4 599.4 461 597.2 460.8 595C460.6 593.9 460.5 592.9 460.5 591.8C460.4 590.7 460.3 589.6 460.3 588.4L468.9 584.2L477.5 580.4C482.8 578.4 490 575.3 495.4 573.7C508.3 570 521.3 570 534.3 568.1C532.4 568.1 532.4 564.4 532.4 562.5C527 551.5 517.7 542.2 508.4 532.9C504.7 525.4 500.9 516.3 500.9 512.6C504.7 508.8 508.4 514.4 514 514.4C512.1 509.6 511 504.3 510.6 499.2C510.4 497.5 510.3 495.8 510.3 494.1C508.4 486.6 508.4 486.6 508.4 477.5C508.4 466.3 512.1 460.7 510.3 459C508.4 457.1 500.9 453.4 499.1 453.4C495.4 451.5 493.5 451.5 491.7 448C477.1 425.9 477.9 419.6 487.9 396C489.8 388.6 499.1 385 504.7 381.3C510.3 377.5 515.7 379.4 521.3 379.4C534.3 379.4 545.3 386.8 554.7 392.4C557.9 395 560.8 397.9 562.9 401.5C565.3 404.9 566.6 408.8 567.7 412.8H584.3C593.6 414.6 602.8 416.5 613.9 421.9C626.8 410.9 649.1 409 660.3 409C660.3 388.7 675 377.5 686 377.5C695.4 375.7 700.9 373.8 713.8 379.4C723.1 385 736 403.4 736 405.3C739.8 412.8 737.9 421.9 737.9 433.1C737.6 434.3 737.3 435.5 737.1 436.8C736.2 440.4 736.1 444.3 736 448C734.2 455.4 725 460.9 719.4 462.7C719.4 475.6 715.7 483 713.8 494.2C713.8 499.8 712 505.2 710.1 510.8C715.7 508.9 717.6 505.2 723.1 505.2C719.4 529.4 713.8 525.5 708.4 536.7C707.3 540.7 705.8 544.7 703.9 548.4C700.4 555.8 695.2 562.3 687.9 566.3C684.2 568.2 687.9 570.1 687.9 571.9C702.3 571.9 718.8 575.3 739.2 583.6V375.5C739.2 373.8 739.1 372.2 739 370.6C738.8 367.3 738.3 363.8 737.9 360.5C737.6 358.8 737.2 357.1 736.8 355.5C726.2 365.5 721.2 363.8 708.3 359.2C704.6 355.5 687.8 349.9 678.6 349.9C667.6 349.9 660.2 364.8 647.3 372.1C641.7 373.9 630.5 375.8 619.5 379.5C612 383.2 608.3 385.1 608.3 381.4C606.5 373.9 606.5 366.5 606.5 359.2C600.9 357.3 593.5 357.3 587.9 353.6C585.8 362.1 581.8 370.3 576.9 377.6C569.4 373.9 562 372.2 554.7 366.6C545.3 361 523.2 348.1 521.3 344.4C513.9 351.8 491.7 364.7 478.8 372.2L475.8 377C474.7 378.5 473.7 380 472.6 381.6C471.5 383.1 470.4 384.6 469.2 386.1C468.1 387.6 467 389.1 465.8 390.6L447.3 383.3C451 375.8 454.6 372.3 458.5 364.8C465.9 353.8 476.9 344.5 484.2 337C504.7 329.6 504.7 326 528.7 322.3C538 333.3 563.9 350.1 563.9 350.1C563.9 353.8 565.8 348.2 573.2 326C578.8 329.7 582.5 329.7 588.1 333.4C588.7 333.5 589.4 333.7 590 333.9C590.5 334 591.1 334.1 591.7 334.2C592.3 334.4 593 334.6 593.6 334.7C594.1 334.9 594.7 335.1 595.4 335.3C597.3 335.3 608.4 329.7 610.3 327.9C614 326 630.6 322.3 630.6 322.3C632.5 324.2 625 337.2 625 338.9V353.8C626.1 354 627.7 353.7 628.8 353.5L630.7 352.8C631.2 352.6 631.8 352.3 632.5 352C641.6 348.2 643.5 331.5 647.2 318.6C652.8 320.5 656.5 320.5 662.1 320.5C662.1 327.9 658.4 338.9 663.9 338.9C669.5 338.9 677 331.5 688.1 322.3C704.1 328.7 719.9 337.8 734.8 347.4C723.2 310.8 686.9 284.4 648.5 285H375.9C352.2 284.9 328.4 294.6 311.8 311.6C294.8 328.3 285 351.9 285.1 375.7V648.3C284.2 697.2 327 740.1 375.9 739.1H442.7C441.9 736.9 441.2 734.6 440.3 732.4C438.6 728.5 436.3 723 434.4 719.3L430.9 712.9C430.9 712.9 458.7 701.9 466.1 701.9C467.9 705.6 469.8 711 473.5 714.7C469.8 718.5 458.8 729.6 455 735.2C454.5 736 453.4 736.7 452.6 737.3C452.2 737.7 451.7 738 451.3 738.3L450 739.3H576.3C571.3 733.5 565.9 726.4 565.9 722.3C565.9 716.7 558.5 707.4 567.8 707.4C567.8 703.7 577.1 709.3 580.8 709.3C581.8 709.3 582.7 709.4 583.7 709.6C584.6 709.8 585.4 710.2 586.3 710.7C587.2 711.1 587.9 711.7 588.5 712.5C589.1 713.1 589.7 713.9 590.1 714.7C592 720.3 590.1 725.9 592 731.5C592.3 733.2 592.7 735.5 593 737.3L593.6 739.2H608.6C608.6 733.6 608.6 729.6 606.8 725.9C606.8 722.2 604.9 716.6 606.8 711C606.8 705.6 621.5 703.6 628.9 701.7C630.8 711 632.7 720.3 630.8 725.9C629.2 731 626 734.5 622.7 739.2C626.8 739.1 650.6 739.3 654.2 739C652.1 738.4 650.4 737.9 647.6 737.1C645.8 735.2 645.8 731.5 645.8 725.9C645.8 722.2 643.9 714.7 643.9 707.4C643.9 703.7 647.6 702 653.2 698.1C655 698.1 656.9 696.3 664.2 694.4V724C665 727.4 666.3 732.6 667.4 737.3C671.2 736.4 675.3 735.4 678.9 734.1L684.6 731.9C686.4 731.1 688.2 730.3 690 729.3C685.8 723.5 680.9 713.3 680.9 709.3C679 703.7 679 692.7 680.9 687.1C680.9 687.1 691.9 690.8 695.6 692.7C704.9 692.7 697.5 705.6 701.2 709.3L701.5 712.2C701.7 713.2 701.9 714.1 702.1 714.9C702.3 715.9 702.6 716.8 702.9 717.8C703.1 718.7 703.4 719.6 703.9 720.5C705.6 719.1 707.3 717.7 708.8 716.2C710.5 714.8 712.1 713.3 713.6 711.7C716.8 708.5 719.5 705.1 722.1 701.5C720.2 700.3 718.4 698.3 717 696.5C715.8 694.5 715 692.1 714.1 689.9C713.7 688.4 713.2 686.9 712.7 685.3C711.8 682.3 710.9 679 710.3 675.9C712.2 675.9 715.9 675.9 717.8 677.8C723.2 677.8 723.2 677.8 726.9 679.6C726.9 681.2 728.3 684.4 730.3 688.1C731.8 685 733.1 681.9 734.1 678.7C736.4 672.1 737.9 665.6 738.7 658.7C739.2 652 739 641.3 739.2 634.9ZM739.1 621.9V596.2C718.8 587.9 700.2 586.1 689.8 583.3V598C697.2 599.9 700.8 603.6 708.3 605.5C711.1 606.7 727.2 615.4 739.1 621.9ZM658.3 548.1C665.7 551.8 674.9 555.5 680.5 560.9C682.3 560.9 687.9 551.6 687.9 548C695.3 548 678.6 540.6 671.3 535C670.9 535 670.5 534.9 670.2 534.8C669.9 534.7 669.6 534.5 669.2 534.3C668.9 534.2 668.6 534 668.4 533.8C668.1 533.6 667.8 533.3 667.6 533C663.8 529.3 662 522 654.5 520.1H653.9C653.7 520 653.5 519.8 653.3 519.6L653 519C652.6 513.4 651.1 490.8 650.9 490.5C654.6 498 662.1 498 665.8 498C673.2 498 678.8 496.1 682.4 490.5C682.4 488.7 684.3 485.1 686.1 485.1C689.9 483.2 693.6 481.3 695.4 477.6C697.3 477.6 699.2 473.9 699.2 473.9C682.4 472 647.2 472 647.2 472C641.6 473.9 636.2 479.5 636.2 481.4C636.2 481.4 639.9 501.7 639.9 503.5C639.9 516.6 641.7 516.6 641.7 529.6C647.3 533.3 649.2 533.3 652.9 537C654.7 540.7 656.6 544.4 658.5 548L658.3 548.1ZM676.8 581.3C671.2 579.5 665.6 575.7 654.6 577.6C652.7 579.5 652.7 579.5 652.7 585C662 585 667.6 590.6 674.9 592.5C674.9 592.5 676.8 583.2 676.8 581.3ZM637.8 444.3C641.5 444.3 641.5 451.8 641.5 455.5C650.9 455.5 660.2 457.3 663.7 453.7C684.2 444.3 652.7 436.9 649 436.9C639.7 435 621.2 429.5 628.5 436.9C628.6 440.6 634.1 440.6 637.8 444.3ZM676.8 420.3C689.7 424 699 431.5 708.3 442.5C709.7 442.5 711.1 442.3 712.5 441.9C713.8 441.4 715 440.7 716.2 440C717.4 439.1 718.4 438.1 719.2 437C720.1 435.9 720.7 434.7 721.3 433.3C723.1 424 725 409.2 719.4 401.8C715.7 398.1 713.8 396.2 704.5 394.4C699.3 392.7 693.3 393.9 688.5 396.5C686.9 397.5 685.5 398.6 684.2 400C680.5 405.4 674.9 412.9 676.8 420.3ZM582.3 533.2V527.8C584.2 511 584.2 507.3 586.1 496.3C586.1 494.4 587.8 483.3 587.8 481.4C587.8 477.7 584.1 473.9 578.5 472.1C563.3 472.4 543.5 471 528.6 473.9C532.1 481.4 541.4 488.9 545.1 492.6C548.9 496.1 552.6 500 560 500C567.5 498.1 567.5 500 571.2 498.1C571.2 501.8 573 507.4 571.2 511C571.2 512.9 573 527.6 565.6 529.6C560 531.5 552.6 535 549 540.6C545.2 546.2 543.4 555.5 549 559.1C552.7 561 556.4 555.4 562 553.5C567.6 551.7 567.6 548.1 569.4 542.5C573.1 538.8 580.4 536.9 582.3 533.2ZM562 579.5C560.2 579.5 557.3 579.8 555.4 580C553.8 580.3 550.6 581 549 581.3L549.6 584.2C549.9 585.2 550.2 586.1 550.6 586.9L551.6 589.8C551.9 590.7 552.3 591.6 552.7 592.5C558.1 590.6 560.1 588.8 563.7 586.9C563.7 586.9 571.2 583.2 573 581.3C569.4 579.6 565.7 579.6 562 579.5ZM534.2 431.5C537.9 427.7 548.9 420.3 548.9 420.3C550.8 420.3 550.8 418.4 550.8 416.6C547.1 403.7 543.4 403.7 535.9 400C535 399.2 534.1 398.7 533 398.2C529.9 396.6 526.4 396.1 522.9 396.1C515.5 398 502.6 401.7 498.9 412.9C498.9 414.7 497 422.2 502.6 429.5C506.3 436.9 513.8 442.5 517.5 446.1C523.2 446.2 524.9 436.9 534.2 431.5ZM587.9 455.5C593.5 448.1 598.9 444.3 598.9 437C598.9 433.3 591.5 435.1 587.9 437C584.2 437 578.6 440.7 573 444.4C567.6 450 563.7 451.9 563.7 457.3H573C582.3 457.2 584.3 461.1 587.9 455.5ZM434.1 570.3C428.7 577.7 417.5 588.8 413.8 594.3L411.9 572.1C410.1 566.5 410.1 566.5 410.1 555.5C419.4 549.9 423.1 546.2 432.3 540.6C436 536.9 448.9 533.2 467.5 527.7C467.5 535.2 465.6 540.6 463.8 548C452.6 553.4 442.4 561 434.2 570.4L434.1 570.3ZM424.9 668.5C424.9 664.7 423 661 421.2 657.3C419.3 651.7 419.3 646.3 417.4 640.7C417.1 629.3 415.2 611.5 415.6 601.8C423 598 432.2 592.4 439.6 588.9C437.8 598 435.9 601.8 435.9 616.6C435.9 620.3 439.6 631.5 441.5 644.4C437.8 651.8 435.9 657.4 430.5 662.9C429.9 663.8 428.8 665.2 428.1 666.1C427.1 667 426.1 667.8 424.9 668.5ZM423.2 459.1C430.6 455.4 434.2 451.7 441.6 446.2C439.5 432.1 434.2 413.2 441.6 401.7C445.3 394.4 454.5 394.4 461.9 396.1C460.2 409.1 458.4 412.9 458.4 427.6C458.4 429.5 461.9 438.8 463.8 442.5C465.7 446.2 467.5 449.9 467.5 453.7C467.5 455.5 465.7 457.2 463.8 459.1C458.4 462.8 456.4 461 454.5 464.7C445.2 472.1 441.6 475.7 434.2 481.3C430.5 485 430.5 485 426.8 490.6C426.9 490.6 425 470.3 423.2 459.1ZM423.2 516.5C423.2 514.6 423.2 501.6 425 496C425 492.5 441.6 486.9 450.9 485C454.6 485 469.4 481.3 471.2 485C473.1 488.8 469.5 488.7 469.5 499.9C467.6 503.6 465.8 501.7 462 505.5C460.3 507.3 439.9 522.1 438 523.9C434.3 525.8 432.4 527.6 427 533.2C425 527.6 425 522.1 423.2 516.5ZM545.4 685.1C547.2 688.8 549.1 698 549.1 698C549.1 710.9 543.5 714.6 541.7 722C537.9 716.4 536.1 709.1 534.2 703.5C532.4 697.9 528.6 694.2 524.9 688.6C526.8 686.8 528.6 672.1 528.6 672.1C530.5 670.2 534.2 673.9 536 673.9C537.1 674.5 538.1 675.3 539 676.1L541.5 678.7C543 680.6 544.4 682.8 545.2 685.1H545.4ZM612.1 616.5C630.6 616.5 649.2 618.4 663.9 627.7C663.9 635.1 663.9 644.3 660.2 651.7C660.2 653.6 656.5 661.1 652.8 664.7C647.2 657.3 636.2 650 636.2 650C638 657.4 636.2 659.1 634.3 668.6C634.3 670.4 621.4 670.4 621.4 670.4C610.4 664.8 608.5 657.5 608.5 657.5C608.5 659.2 606.6 672.4 599.2 672.4C591.7 672.4 586.3 672.4 586.3 666.8C583.9 659.4 584.7 652.2 584.5 644.6C578.9 646.5 575.2 652 571.4 655.8C569.6 655.8 567.7 652 566 652C565.2 650.4 564.4 648.7 563.6 647C561.6 642 559.7 636.9 558.5 631.7C576.9 618.4 595.5 616.5 612.1 616.5ZM504.8 683.2C506.6 692.5 512.2 709.1 512.2 709.1C506.6 705.4 501 703.5 495.6 699.8C491.9 697.9 488.1 696.1 488.1 694.2C486.3 687 484.8 679.5 484.4 672C484.4 664.7 488.1 657.3 491.9 657.3C495.6 659.1 501 661 502.9 664.7C506.6 670.2 502.9 677.7 504.8 683.2ZM449.1 657.3C454.7 662.9 456.6 664.7 460.3 673.9C458.4 675.8 447.4 685.1 438.1 696.1C438.1 699.8 432.5 703.5 432.5 703.5C432.5 696.1 430.7 686.9 430.7 683.2C428.8 679.5 427 677.6 427 673.9C428.8 672 432.4 670.2 436.1 668.3C438.1 664.6 447.4 659 449.1 657.3Z" fill="white"/>
</g>
<defs>
<clipPath id="clip0_2_2517">
<rect width="1024" height="1024" fill="white"/>
</clipPath>
</defs>
</svg>
